svg/home_lightbulb.svg

<?xml version="1.0" encoding="UTF-8"?><!DOCTYPE svg PUBLIC "-//W3C//DTD SVG 1.1//EN" "http://www.w3.org/Graphics/SVG/1.1/DTD/svg11.dtd"><svg xmlns="http://www.w3.org/2000/svg" xmlns:xlink="http://www.w3.org/1999/xlink" version="1.1" id="mdi-home-lightbulb" width="24" height="24" viewBox="0 0 24 24"><path d="M12 3L2 12H5V20H19V12H22M13 18H11V17H13M13.5 14.58V16H10.5V14.58A3 3 0 1 1 13.5 14.58Z" /></svg>

<svg xmlns="http://www.w3.org/2000/svg" viewBox="0 0 24 24"><path d="M12 3 2 12h3v8h14v-8h3m-9 6h-2v-1h2m.5-2.42V16h-3v-1.42a3 3 0 1 1 3 0"/></svg>
